!!!COM:	Bach, Johann Sebastian
!!!CDT:	1685/02/21/-1750/07/28/
!!!OTL@@DE:	Allein Gott in der H&ouml;h sei Ehr
!!!OPR:	Cantata, BWV 104: Du Hirte Israel, h&ouml;re
!!!SCT:	BWV 104/6
!!!PC#:	326
!!!hymn: Nicolaus Decius (c.1485-aft.1546)
!!!AGN:	chorale
**kern	**kern	**kern	**kern
*ICvox	*ICvox	*ICvox	*ICvox
*Ibass	*Itenor	*Ialto	*Isoprn
*I"Bass	*I"Tenor	*I"Alto	*I"Soprano
*>[A,A,B]	*>[A,A,B]	*>[A,A,B]	*>[A,A,B]
*>norep[A,B]	*>norep[A,B]	*>norep[A,B]	*>norep[A,B]
*>A	*>A	*>A	*>A
*clefF4	*clefGv2	*clefG2	*clefG2
*k[f#c#g#]	*k[f#c#g#]	*k[f#c#g#]	*k[f#c#g#]
*A:	*A:	*A:	*A:
*M4/4	*M4/4	*M4/4	*M4/4
*met(c)	*met(c)	*met(c)	*met(c)
*MM100	*MM100	*MM100	*MM100
4AA	8c#L	4e	8aL
.	8dJ	.	8bJ
=1	=1	=1	=1
8AL	4e	4a	4cc#
8G#J	.	.	.
4F#	4f#	4a	4dd
4E	8BL	4g#	4ee
.	8c#J	.	.
4BB	4d	8f#L	4dd
.	.	8g#J	.
=2	=2	=2	=2
8C#L	4e	4a	4cc#
8DJ	.	.	.
4E	4e	4g#	4b
4AA;	4e;	4a;	4cc#;
8AL	4A	4e	4cc#
8G#J	.	.	.
=3	=3	=3	=3
8F#L	2A	4f#	4cc#
8EJ	.	.	.
8DL	.	8f#L	8bL
8C#J	.	8eJ	8cc#J
8BBL	8G#L	8dL	8ddL
8AAJ	8AJ	8eJ	8cc#J
8EL	4G#	4e	4b
8DJ	.	.	.
=4	=4	=4	=4
8C#L	8eL	8eL	4a
8AAJ	8c#J	8aJ	.
4E	16dLL	4g#	4b
.	16c#J	.	.
.	8dJ	.	.
4AA;	4c#;	4e;	4a;
=:|!	=:|!	=:|!	=:|!
*>B	*>B	*>B	*>B
4A	4c#	4e	4a
=5	=5	=5	=5
4E	4G#	4e	4b
8DL	4A#	4e	4cc#
8C#J	.	.	.
4BB	4B	8dL	4dd
.	.	8eJ	.
8EL	4A#	4f#	4cc#
8F#J	.	.	.
=6	=6	=6	=6
4G	4B	8f#L	4b
.	.	8eJ	.
4F#	4A#	8eL	4cc#
.	.	16dL	.
.	.	16c#JJ	.
4BB;	4F#;	4d;	4b;
4G#	4B	4e	4b
=7	=7	=7	=7
8AnXL	4AnX	4e	4cc#
8G#J	.	.	.
4F#	4A	4f#	4dd
4E	4B	4g#	4ee
8F#L	8AL	4f#	4dd
8G#J	8BJ	.	.
=8	=8	=8	=8
8AL	4c#	4e	4cc#
8A#J	.	.	.
4B	8F#L	8dL	4b
.	8G#J	16f#L	.
.	.	16e#JJ	.
4F#;	4A#;	4f#;	4cc#;
8F#L	4c#	4f#	4anX
8EJ	.	.	.
=9	=9	=9	=9
4D	8F#L	4f#	4b
.	8G#J	.	.
4C#	4AnX	4e	4cc#
8BBL	4A	4d	8ddL
8C#J	.	.	8cc#J
4D	4G#	4e	4b
=10	=10	=10	=10
8C#L	8AL	8eL	8aL
8DJ	8dJ	8f#J	8f#J
4E	4B	4e	4g#
4AA;	4c#;	4e;	4a;
==	==	==	==
*-	*-	*-	*-
!!!hum2abc: -Q ''
!!!title: @{PC#}. @{OTL@@DE}
!!!YOR1: 371 vierstimmige Choralges&auml;nge von Johann Sebastian Bach, 
!!!YOR2: 4th ed. by Alfred D&ouml;rffel (Leipzig: Breitkopf und H&auml;rtel, 
!!!YOR2: c.1875). 178 pp. Plate "V.A.10".  reprint: J.S. Bach, 371 Four-Part 
!!!YOR4: Chorales (New York: Associated Music Publishers, Inc., c.1940).
!!!SMS: B&H, 4th ed, Alfred D&ouml;rffel, c.1875, plate V.A.10
!!!PC#2: 14 (Budapest/Imre, 1982)
!!!EED:  Craig Stuart Sapp
!!!EEV:  2009/05/22
